packages/foundations/assets/icons/functional/images/editing/copy_20.svg

<svg width="20" height="20" viewBox="0 0 20 20" fill="none" xmlns="http://www.w3.org/2000/svg">
<g clip-path="url(#clip0_83_116)">
<path fill-rule="evenodd" clip-rule="evenodd" d="M4.978 7V16H10.978C11.478 16 11.975 16.433 11.978 17C11.981 17.567 11.625 18.001 10.978 18H4.078C3.78691 17.9979 3.50834 17.8813 3.3025 17.6755C3.09666 17.4697 2.98009 17.1911 2.978 16.9V7C2.978 6.386 3.384 6.002 3.978 6C4.572 5.998 4.978 6.5 4.978 7ZM15.799 2C16.429 2 17.022 2.576 17.022 3.2V12.799C17.022 13.417 16.455 13.999 15.799 13.999H8.244C7.614 13.999 7.022 13.413 7.022 12.799V3.199C7.022 2.582 7.615 2 8.244 2H15.799ZM8.978 4H14.978V12H8.978V4Z" fill="#1A1C1F"/>
</g>
<defs>
<clipPath id="clip0_83_116">
<rect width="20" height="20" fill="white"/>
</clipPath>
</defs>
</svg>

<svg xmlns="http://www.w3.org/2000/svg" width="20" height="20" fill="none"><g clip-path="url(#a)"><path fill="#1A1C1F" fill-rule="evenodd" d="M4.978 7v9h6c.5 0 .997.433 1 1s-.353 1.001-1 1h-6.9a1.11 1.11 0 0 1-1.1-1.1V7c0-.614.406-.998 1-1s1 .5 1 1m10.821-5c.63 0 1.223.576 1.223 1.2v9.599c0 .618-.567 1.2-1.223 1.2H8.244c-.63 0-1.222-.586-1.222-1.2v-9.6C7.022 2.582 7.615 2 8.244 2zM8.978 4h6v8h-6z" clip-rule="evenodd"/></g><defs><clipPath id="a"><path fill="#fff" d="M0 0h20v20H0z"/></clipPath></defs></svg>
